X: 10744
T: Dr. Gilbert's
R: reel
M: 4/4
K: Edorian
gf|eB~B2 BABc|dBAF AFDf|eB~B2 Bdgb|afdf efgf|
eB~B2 BABc|dBAF AFDd|Be~e2 Begb|afdf ef:|
|:gf|eB~B2 gB~B2|defa afdf|~g2bg faaf|~e2fd eB~B2|
afdf edBc|dBAF AFDd|Be~e2 Begb|afdf ef:|

